X:171
T:Kaffeb\"onan
T:Bremans polska
R:sl\"angpolska
H:efter C A Lindblom. Jfr #16, jfr Bagge 76
A:\"Osterg\"otland
B:SvL \"Ogl 48
Z:id:hn-sp-171
M:3/4
L:1/16
K:A
e2a2 e4 f4 | f2ef e2d2 d2c2 | e2a2 e4 f4 | f2ef e2d2 d2c2 |
e2a2 afdf fece | edBG G2A2 A4 :| A3c e2e2 gegb | b2a2 afdf f2e2 |
c2Bc d2Bd cdcB | ABcd efed cdcB | A3c e2e2 gegb | b2a2 afdf f2e2 |
c2Bc d2Bd c2Ac | cBAG G2A2 A4 ||
P:variant p{\aa} andra delen
A3c e2e2 gegb | b2a2 afdf f2e2 | cAce fdBd ecAc | ABcd efed cdcB |
A3c e2e2 gegb | b2a2 afdf f2e2 | cAce fdBd ecAc | dBGB B2A2 A4 ||

